X:1
T:Miss Peggy Montgomerie’s Hornpipe
M:3/2
L:1/8
R:Triple Hornpipe
B:John Riddell of Ayr – Collection of Scots Reels, Minuets &c.
B:for the Violin (1782, p. 54)
Z:AK/Fiddler’s Companion
K:Emin
B,2|EFGA B2E2 B2E2|F2 d4 A2 GFED|EFGA B2E2B2E2|
e2 B4 A2 (A^G)(FE):: e3f (e>fg)e (gf)(ed)|B2d4 A2 (GF)(ED)|
e3f (e>fg)e (gf)(ed)|d2 e4 B2 (A^G)(FE)::E2G2F2A2G2B2|
B2d4 A2 (GF)(ED)|E2G2F2A2G2B2|e2B4 A2 (A^G)(FE):|
e3f (e>f)ge f2b2|a2f2d2g2f2a2|b2f2 g2e2{g}f2 (ed)|B2e4B2 (A^G)(FE):|]

